X: 29879
T: O'Keeffe's
R: slide
M: 12/8
K: Adorian
E|A3 e2 d BAB d2 B|A3 e2 d B2 G GFG|
A3 e2 d BAB d2 B|BAB d2 e B2 A A2 E|
A3 e2 d BAB d/e/dB|A2 g e2 d B2 e G2 B|
A2 g e2 d BAB d2 B|BAB d2 e B/c/BA A3||
e2 a a2 b a2 g e2 d|e2 a a2 b a2 g e2 f|
g2 f g2 e dBA G3|BAB d2 e B2 A A3|
e2 a a2 b a2 g e/f/ed|e2 a a2 b a/b/ag e2 f|
g/f/gf g/f/ge dBA G2 A|BAB d2 e B/c/BA A2||

